X:230
T:Pork and Beans
M:2/4
L:1/16
K:G
Bc|d2B2 g2B2|d2cd cBA2|c2A2 d2A2|c2Bc BAG2|
d2B2 g2B2|f2e2 edef|e2d2 f2a2|g2b2 g2:|
K:D
|:B2|ABAG F2A2|fefg f4|efed c2e2|a^gab a4|
ABAG F2A2|fefg f4|e2ce a2c2|e2d2 d2:|
